src/assets/outline/Bubble.svg

<svg width="24" height="24" viewBox="0 0 24 24"  xmlns="http://www.w3.org/2000/svg">
<path d="M15.59 13.01C12.35 13.01 9.70996 10.37 9.70996 7.13C9.70996 3.89 12.35 1.25 15.59 1.25C18.83 1.25 21.47 3.89 21.47 7.13C21.47 10.37 18.83 13.01 15.59 13.01ZM15.59 2.75C13.18 2.75 11.21 4.71 11.21 7.13C11.21 9.55 13.17 11.51 15.59 11.51C18.01 11.51 19.97 9.55 19.97 7.13C19.97 4.71 18 2.75 15.59 2.75Z" />
<path d="M6.36026 20.1903C4.25026 20.1903 2.53027 18.4703 2.53027 16.3603C2.53027 14.2503 4.25026 12.5303 6.36026 12.5303C8.47026 12.5303 10.1903 14.2503 10.1903 16.3603C10.1903 18.4703 8.47026 20.1903 6.36026 20.1903ZM6.36026 14.0303C5.08026 14.0303 4.03027 15.0703 4.03027 16.3603C4.03027 17.6403 5.07026 18.6903 6.36026 18.6903C7.64026 18.6903 8.69028 17.6503 8.69028 16.3603C8.69028 15.0803 7.64026 14.0303 6.36026 14.0303Z" />
<path d="M16.6201 22.7499C14.7901 22.7499 13.3101 21.2599 13.3101 19.4399C13.3101 17.6099 14.8001 16.1299 16.6201 16.1299C18.4401 16.1299 19.9301 17.6199 19.9301 19.4399C19.9301 21.2599 18.4401 22.7499 16.6201 22.7499ZM16.6201 17.6199C15.6201 17.6199 14.8101 18.4299 14.8101 19.4299C14.8101 20.4299 15.6201 21.2399 16.6201 21.2399C17.6201 21.2399 18.4301 20.4299 18.4301 19.4299C18.4301 18.4399 17.6201 17.6199 16.6201 17.6199Z" />
</svg>

<?xml version="1.0" encoding="UTF-8"?>
<svg width="24" height="24" viewBox="0 0 24 24" xmlns="http://www.w3.org/2000/svg">
 <path d="m15.59 13.01c-3.24 0-5.88-2.64-5.88-5.88s2.64-5.88 5.88-5.88 5.88 2.64 5.88 5.88-2.64 5.88-5.88 5.88zm0-10.26c-2.41 0-4.38 1.96-4.38 4.38s1.96 4.38 4.38 4.38 4.38-1.96 4.38-4.38-1.97-4.38-4.38-4.38z"/>
 <path d="m6.3603 20.19c-2.11 0-3.83-1.72-3.83-3.83s1.72-3.83 3.83-3.83 3.83 1.72 3.83 3.83-1.72 3.83-3.83 3.83zm0-6.16c-1.28 0-2.33 1.04-2.33 2.33 0 1.28 1.04 2.33 2.33 2.33 1.28 0 2.33-1.04 2.33-2.33 0-1.28-1.05-2.33-2.33-2.33z"/>
 <path d="m16.62 22.75c-1.83 0-3.31-1.49-3.31-3.31 0-1.83 1.49-3.31 3.31-3.31s3.31 1.49 3.31 3.31-1.49 3.31-3.31 3.31zm0-5.13c-1 0-1.81 0.81-1.81 1.81s0.81 1.81 1.81 1.81 1.81-0.81 1.81-1.81c0-0.99-0.81-1.81-1.81-1.81z"/>
</svg>
